X: 1
T: Vain Belinda
C: Georg Monro (1680-1731)
N: Origin unknown.
N: (51) at top of page.
R: reel
Z: 2020 John Chambers <jc:trillian.mit.edu>
S: Facebook post 2020-1-29
M: 2/4
L: 1/8
K: F
% - - - - - - - - - -
V: 1
[|\
(F/G/A/B/c) B | (AG) (Fd) | c2 B2 | A4 | (F/G/A/B/c) B | (AG) (Ff) | e2 d2 | c4 |]
w: Vain**** Bel-Lin-*da* are your Wiles, Vain**** are all* your* art-ful Smiles
c2 de | f2 F2 | G2 A2 | B3c | (dc) (BA) | (GE) (FB) | A2 G2 |
w: While like a Bul-ly you in-vite, And then* de-*cline* th' ap-proach-ing
F/G/F/G/ A/B/A/B/ | cB/A/ G/F/E/D/ | C4 | f2 (ed) | c(B/A/) (GF) | G2 E2 | F4 |]
w: fi______________ght, then de-*cline** th' ap-proach-ing fight.
% - - - - - - - - - -
V: 2 clef=bass middle=d
[|\
f4 | fg ab | aA Gg | fe/d/ ec | Ff/g/ ag | fg af | g2 G2 | c4 |]
cc' bB | AG AF | BG AF | GF GA | BA GF | Ec dB | c2 C2 |
G2 f2 | a2 b2 | c'c c'b | ad' c'b | ag/f/ ef | B2 c2 | F4 :|
%
W: Various are the little Arts,
W: Which you use to Conquer Hearts;
W: By empty threats, he wou'd affright,
W: And you by empty hopes invite.
W:
W: Cowards may, by him be Brav'd,
W: Fops may be by you enslav'd;
W: Then wou'd he Vanquish, or you bind,
W: He must be brave, and you be kind.
